public/assets/img/pointer.svg

<svg width="31" height="34" viewBox="0 0 31 34" fill="none" xmlns="http://www.w3.org/2000/svg" focusable="false">
  <g filter="url(#filter0_d)">
    <path
      d="M26.1481 20.0625V15.1875C26.1481 14.0657 25.2628 13.1562 24.1706 13.1562C23.0785 13.1562 22.1931 14.0657 22.1931 15.1875H21.7976V13.9688C21.7976 12.8469 20.9123 11.9375 19.8201 11.9375C18.7279 11.9375 17.8426 12.8469 17.8426 13.9688V15.1875H17.4471V13.1562C17.4471 12.0344 16.5618 11.125 15.4696 11.125C14.3774 11.125 13.4921 12.0344 13.4921 13.1562V15.1875H13.0966V5.03125C13.0966 3.90944 12.2112 3 11.119 3C10.0269 3 9.14154 3.90944 9.14154 5.03125V19.0465L7.57693 16.8366C6.93458 15.9293 5.6978 15.7287 4.81449 16.3885C3.93128 17.0483 3.736 18.3187 4.37835 19.226L10.7062 28.1635C11.0784 28.689 11.6729 29 12.3056 29H22.5886C23.5063 29 24.3034 28.3515 24.5136 27.434L26.0956 20.5278C26.1305 20.3753 26.1481 20.2191 26.1481 20.0625Z"
      fill="#d8dee9"
    ></path>
    <path
      d="M26.1481 20.0625V15.1875C26.1481 14.0657 25.2628 13.1562 24.1706 13.1562C23.0785 13.1562 22.1931 14.0657 22.1931 15.1875H21.7976V13.9688C21.7976 12.8469 20.9123 11.9375 19.8201 11.9375C18.7279 11.9375 17.8426 12.8469 17.8426 13.9688V15.1875H17.4471V13.1562C17.4471 12.0344 16.5618 11.125 15.4696 11.125C14.3774 11.125 13.4921 12.0344 13.4921 13.1562V15.1875H13.0966V5.03125C13.0966 3.90944 12.2112 3 11.119 3C10.0269 3 9.14154 3.90944 9.14154 5.03125V19.0465L7.57693 16.8366C6.93458 15.9293 5.6978 15.7287 4.81449 16.3885C3.93128 17.0483 3.736 18.3187 4.37835 19.226L10.7062 28.1635C11.0784 28.689 11.6729 29 12.3056 29H22.5886C23.5063 29 24.3034 28.3515 24.5136 27.434L26.0956 20.5278C26.1305 20.3753 26.1481 20.2191 26.1481 20.0625Z"
      stroke="#2e3440"
      stroke-width="2"
      stroke-linecap="round"
      stroke-linejoin="round"
    ></path>
  </g>
  <defs>
    <filter
      id="filter0_d"
      x="0.000102997"
      y="0"
      width="30.148"
      height="34"
      filterUnits="userSpaceOnUse"
      color-interpolation-filters="sRGB"
    >
      <feFlood flood-opacity="0" result="BackgroundImageFix"></feFlood>
      <feColorMatrix in="SourceAlpha" type="matrix" values="0 0 0 0 0 0 0 0 0 0 0 0 0 0 0 0 0 0 127 0"></feColorMatrix>
      <feOffset dy="1"></feOffset>
      <feGaussianBlur stdDeviation="1.5"></feGaussianBlur>
      <feColorMatrix type="matrix" values="0 0 0 0 0 0 0 0 0 0 0 0 0 0 0 0 0 0 0.1 0"></feColorMatrix>
      <feBlend mode="normal" in2="BackgroundImageFix" result="effect1_dropShadow"></feBlend>
      <feBlend mode="normal" in="SourceGraphic" in2="effect1_dropShadow" result="shape"></feBlend>
    </filter>
  </defs>
</svg>

<svg width="31" height="34" fill="none" xmlns="http://www.w3.org/2000/svg"><g filter="url(#filter0_d)"><path d="M26.148 20.063v-4.875c0-1.122-.885-2.032-1.977-2.032-1.093 0-1.978.91-1.978 2.031h-.395V13.97c0-1.122-.886-2.031-1.978-2.031s-1.977.909-1.977 2.03v1.22h-.396v-2.032c0-1.122-.885-2.031-1.977-2.031-1.093 0-1.978.91-1.978 2.031v2.031h-.395V5.031C13.097 3.91 12.21 3 11.119 3s-1.977.91-1.977 2.031v14.016l-1.565-2.21a1.944 1.944 0 0 0-2.763-.448c-.883.66-1.078 1.93-.436 2.837l6.328 8.938c.372.525.967.836 1.6.836h10.283c.917 0 1.714-.648 1.925-1.566l1.582-6.906c.035-.153.052-.309.052-.465z" fill="#d8dee9"/><path d="M26.148 20.063v-4.875c0-1.122-.885-2.032-1.977-2.032-1.093 0-1.978.91-1.978 2.031h-.395V13.97c0-1.122-.886-2.031-1.978-2.031s-1.977.909-1.977 2.03v1.22h-.396v-2.032c0-1.122-.885-2.031-1.977-2.031-1.093 0-1.978.91-1.978 2.031v2.031h-.395V5.031C13.097 3.91 12.21 3 11.119 3s-1.977.91-1.977 2.031v14.016l-1.565-2.21a1.944 1.944 0 0 0-2.763-.448c-.883.66-1.078 1.93-.436 2.837l6.328 8.938c.372.525.967.836 1.6.836h10.283c.917 0 1.714-.648 1.925-1.566l1.582-6.906c.035-.153.052-.309.052-.465z" stroke="#2e3440" stroke-width="2" stroke-linecap="round" stroke-linejoin="round"/></g><defs><filter id="filter0_d" x="0" y="0" width="30.148" height="34" filterUnits="userSpaceOnUse" color-interpolation-filters="sRGB"><feFlood flood-opacity="0" result="BackgroundImageFix"/><feColorMatrix in="SourceAlpha" values="0 0 0 0 0 0 0 0 0 0 0 0 0 0 0 0 0 0 127 0"/><feOffset dy="1"/><feGaussianBlur stdDeviation="1.5"/><feColorMatrix values="0 0 0 0 0 0 0 0 0 0 0 0 0 0 0 0 0 0 0.1 0"/><feBlend in2="BackgroundImageFix" result="effect1_dropShadow"/><feBlend in="SourceGraphic" in2="effect1_dropShadow" result="shape"/></filter></defs></svg>
